img/PaperPlane.svg

<svg fill="none" height="70" viewBox="0 0 70 70" width="70" xmlns="http://www.w3.org/2000/svg" xmlns:xlink="http://www.w3.org/1999/xlink"><linearGradient id="a"><stop offset="0" stop-color="#747def"/><stop offset="1" stop-color="#5e3be1"/></linearGradient><linearGradient id="b" gradientUnits="userSpaceOnUse" x1="49.6467" x2="19.564" xlink:href="#a" y1="1.96393" y2="77.7643"/><linearGradient id="c" gradientUnits="userSpaceOnUse" x1="32.4077" x2="33.5452" xlink:href="#a" y1="34.5441" y2="36.8251"/><linearGradient id="d" gradientUnits="userSpaceOnUse" x1="32.9029" x2="33.507" xlink:href="#a" y1="35.4017" y2="36.5259"/><circle cx="35" cy="35" fill="url(#b)" r="35"/><path d="m52.6105 23.9904c.6913 1.1974.5987 2.6232-.2428 3.7206l-18.4738 24.1072c-.7618.9941-2.0163 1.5009-3.2991 1.2547-1.2561-.2416-2.2521-1.1573-2.5978-2.3888l-2.7335-9.7286-.2846-1.012-.734-.7525-7.0585-7.2315c-.8937-.9151-1.1887-2.2355-.7698-3.4441.4145-1.1948 1.4542-2.0618 2.7361-2.2298l30.1143-3.9452c1.3711-.18 2.6522.4526 3.3435 1.65z" fill="#fff"/><path d="m25.2636 40.9555 2.7334 9.7286c.3457 1.2316 1.3416 2.1472 2.5978 2.3888 1.2828.2463 2.5373-.2605 3.2991-1.2547l18.4738-24.1071c.8415-1.0974.9341-2.5232.2428-3.7206l-27.6316 15.9531z" fill="#fff"/><path d="m36.2231 33.4515c.2812.487.1148 1.1101-.3728 1.3916l-10.5867 6.1122-.2847-1.0119-.734-.7525 10.5867-6.1122c.4876-.2814 1.1104-.1141 1.3915.3728z" fill="url(#c)"/><path d="m25.2637 40.9554 10.5867-6.1122c.4876-.2815.6541-.9045.3729-1.3915l-11.2443 6.4918z" fill="url(#d)"/></svg>

<svg width="70" height="70" viewBox="0 0 70 70" fill="none" xmlns="http://www.w3.org/2000/svg">
<g id="Group 77">
<circle id="Ellipse 31" cx="35" cy="35" r="35" fill="url(#paint0_linear_1_489)"/>
<g id="send (2) 1">
<path id="Vector" d="M52.6105 23.9904C53.3018 25.1878 53.2092 26.6136 52.3677 27.711L33.8939 51.8182C33.1321 52.8123 31.8776 53.3191 30.5948 53.0729C29.3387 52.8313 28.3427 51.9156 27.997 50.6841L25.2635 40.9555L24.9789 39.9435L24.2449 39.191L17.1864 31.9595C16.2927 31.0444 15.9977 29.724 16.4166 28.5154C16.8311 27.3206 17.8708 26.4536 19.1527 26.2856L49.267 22.3404C50.6381 22.1604 51.9192 22.793 52.6105 23.9904Z" fill="white"/>
<path id="Vector_2" d="M25.2636 40.9555L27.997 50.6841C28.3427 51.9157 29.3386 52.8313 30.5948 53.0729C31.8776 53.3192 33.1321 52.8124 33.8939 51.8182L52.3677 27.7111C53.2092 26.6137 53.3018 25.1879 52.6105 23.9905L24.9789 39.9436L25.2636 40.9555Z" fill="white"/>
<path id="Vector_3" d="M36.2231 33.4515C36.5043 33.9385 36.3379 34.5616 35.8503 34.8431L25.2636 40.9553L24.9789 39.9434L24.2449 39.1909L34.8316 33.0787C35.3192 32.7973 35.942 32.9646 36.2231 33.4515Z" fill="url(#paint1_linear_1_489)"/>
<path id="Vector_4" d="M25.2637 40.9554L35.8504 34.8432C36.338 34.5617 36.5045 33.9387 36.2233 33.4517L24.979 39.9435L25.2637 40.9554Z" fill="url(#paint2_linear_1_489)"/>
</g>
</g>
<defs>
<linearGradient id="paint0_linear_1_489" x1="49.6467" y1="1.96393" x2="19.564" y2="77.7643" gradientUnits="userSpaceOnUse">
<stop stop-color="#747DEF"/>
<stop offset="1" stop-color="#5E3BE1"/>
</linearGradient>
<linearGradient id="paint1_linear_1_489" x1="32.4077" y1="34.5441" x2="33.5452" y2="36.8251" gradientUnits="userSpaceOnUse">
<stop stop-color="#747DEF"/>
<stop offset="1" stop-color="#5E3BE1"/>
</linearGradient>
<linearGradient id="paint2_linear_1_489" x1="32.9029" y1="35.4017" x2="33.507" y2="36.5259" gradientUnits="userSpaceOnUse">
<stop stop-color="#747DEF"/>
<stop offset="1" stop-color="#5E3BE1"/>
</linearGradient>
</defs>
</svg>
